X:63
M:C
L:1/8
Q:1/4=140
K:D
|:{ABc}d>cd>e !wedge!d!wedge!c!wedge!B!wedge!A|B>Ad>F A>BA>F|\
{Bc}d>cd>e !wedge!d!wedge!c!wedge!B!wedge!A|B>Ad>F [A4F4]|
{ABc}d>cB>A B>cd>g|(Tf/e/f/g/) A>f e>de>f|\
d>c!wedge!B>!wedge!A B>dg>b|{b/}a>f e>f dd/d/ [d2D2]:|

